public/operators/withbg/bc-game.svg

<svg width="150" height="120" viewBox="0 0 150 120" fill="none" xmlns="http://www.w3.org/2000/svg">
<g clip-path="url(#clip0_248_5)">
<rect width="150" height="120" fill="#1C1E22"/>
<path d="M150 0H0V120H150V0Z" fill="#1C1E22"/>
<path d="M123.761 60.8078L123.197 60.7443C122.438 60.9796 121.679 61.2532 120.927 60.6328C121.28 60.1239 121.332 59.4591 121.874 59.0678L122.48 58.3585C122.48 58.1263 122.48 57.9037 122.759 57.805C122.893 57.141 123.259 56.5437 123.794 56.1159C122.577 55.2602 121.258 55.9216 120.057 55.7532L116.292 62.2934L112.617 55.804H108.667V70.1604H112.335V61.6889L116.276 68.1497L120.168 61.9563L120.492 62.0518V70.1667H124.082C124.082 67.7967 124.111 65.5286 124.082 63.2574C124.047 62.4397 124.361 61.5619 123.761 60.8078Z" fill="#FEFEFE"/>
<path d="M53.5423 63.0654C55.1395 61.5804 55.252 59.8006 54.4674 58.0441C53.7041 56.3406 51.9376 55.8082 50.15 55.7286C47.7751 55.6095 45.3857 55.6988 42.9333 55.6988V71.1333C45.8539 71.001 48.588 71.3055 51.3323 70.8919C53.3168 70.5941 54.7067 69.8102 55.2627 67.9148C55.8363 65.9534 55.4104 64.3225 53.5423 63.0654ZM46.8073 58.7985C47.9447 58.6249 49.1088 58.6891 50.2171 58.9869C50.9209 59.6883 51.0896 60.5152 50.569 61.2593C49.6329 62.5825 48.1586 61.8614 46.818 62.1096L46.8073 58.7985ZM50.1221 67.8786C49.0242 68.2093 47.9228 68.345 46.8321 67.8488V64.5805H49.1967C49.668 64.3688 49.9004 64.7756 50.2523 64.9112C51.3078 64.6895 51.1915 65.5233 51.2621 66.0195C51.3888 66.8697 51.1987 67.6468 50.1221 67.875V67.8786Z" fill="#FEFEFE"/>
<path d="M86.0788 67.6502C84.429 68.0546 82.7795 68.0475 82.0897 66.513C81.0379 64.1732 80.8917 61.3289 82.2424 59.2175C83.6823 56.9538 86.1709 58.1357 88.3292 58.4191L89.2572 55.8994C86.2629 53.9229 81.1999 54.4724 79.1912 56.9366C77.3762 59.1586 77.2204 66.0294 78.9241 68.6177C80.7167 71.3412 85.265 71.9459 89.3334 69.9761V63.2057H86.0788V67.6502Z" fill="#FEFEFE"/>
<path d="M97.5175 55.6792C98.0525 57.28 98.7997 58.6985 99.072 60.2642C99.7365 61.4313 100.23 62.69 100.538 64.0003C99.7811 64.2405 99.072 64.1253 98.3217 64.0867C98.4357 62.9759 99.0878 62.0539 99.037 60.9716H95.8711L92.2334 70.1573H96.0613L97.2515 67.1956H101.595L102.861 70.1667H106.733L101.035 55.6667L97.5175 55.6792Z" fill="#FEFEFE"/>
<path d="M62.0001 66.6687C60.4569 64.7785 60.7016 62.1422 61.5514 59.9953C62.9009 56.5713 65.8189 58.4475 68.1325 58.2833C68.4318 57.4136 68.9029 56.6501 68.9474 55.7392C65.765 53.8938 60.7272 54.5957 58.7636 57.1362C57.1057 59.2831 56.9625 66.2405 58.5313 68.4081C60.6319 71.3081 65.1859 72.0033 69.0333 69.9623C68.8586 68.9587 68.5239 67.9946 68.0435 67.1136C65.9432 67.9833 63.6486 68.6852 62.0001 66.6687Z" fill="#FEFEFE"/>
<path d="M131.016 64.3235H137.661V61.5025L127.033 61.4667V70.1667H138.633V66.9659H131.016V64.3235Z" fill="#FEFEFE"/>
<path d="M72.1792 70.1667H75.8V67.2667H71.9416C72.0602 68.3024 71.7276 69.2394 72.1792 70.1667Z" fill="#FEFEFE"/>
<path d="M138.555 58.2675L138.633 55.9608C138.082 55.5505 137.393 55.7028 136.763 55.7028C133.66 55.6667 130.557 55.6667 127.453 55.6667L127.033 56.0072C127.059 56.0169 127.088 56.019 127.116 56.0127C127.143 56.0065 127.166 55.9927 127.181 55.9737V58.2675L127.152 58.5409L138.286 58.5667C138.38 58.548 138.477 58.5395 138.574 58.5409V58.2829L138.555 58.2675Z" fill="#FEFEFE"/>
<path d="M34.2333 67.2715C34.2202 64.2005 34.2082 61.1294 34.1975 58.0583C33.8024 57.2271 34.0831 56.1623 33.2965 55.4612C31.39 54.7665 29.9538 53.2437 28.0376 52.5913L25.7362 50.9681C24.14 50.0265 22.5209 49.7864 20.8692 50.8318C20.8549 50.8708 20.8279 50.9044 20.7924 50.9267C20.757 50.949 20.7151 50.9591 20.6733 50.955C20.6424 51.0496 20.6259 51.148 20.6243 51.2473L19.5308 51.8448L18.9138 51.942L17.9541 52.5264L17.8072 52.2018C17.8856 51.2279 18.052 50.2181 17.6734 49.2473L17.0826 47.6241C16.9912 47.393 16.838 47.1907 16.6395 47.0397C16.441 46.8886 16.2048 46.7943 15.9563 46.7671C15.4275 46.1115 14.7028 46.3484 14.0337 46.3418C13.3482 45.7932 12.6757 45.9816 12 46.371L12.0947 54.1627V63.2526C12.1121 64.7372 12.1262 66.2122 12.1371 67.6775L12 67.7912L12.4146 68.4598L12.5255 69.0507C12.9107 69.807 13.8313 69.9144 14.3405 70.5246C14.8073 70.5764 15.0293 71.1738 15.5614 71.0798L17.2425 72.0925C17.3437 72.3555 17.5689 72.3879 17.8105 72.4171L20.1216 73.7157C21.5808 75.0727 23.2423 75.3227 25.0801 74.615L25.4066 74.2351L26.0594 74.0241L26.6894 73.8942C26.6811 73.8005 26.7104 73.707 26.771 73.6347C27.0224 73.1281 27.5055 73.0016 27.9984 72.8911L28.4032 72.4626C29.5327 71.9756 30.4369 71.0668 31.6445 70.7225L33.8711 69.0246C33.8905 68.726 33.6686 68.4208 33.9036 68.1285C34.2464 67.9243 34.2333 67.593 34.2333 67.2715ZM19.8801 56.7144L20.5329 56.5422C22.3153 55.2014 24.2673 55.2792 26.2781 55.8669L26.3173 55.8929L28.648 57.4186C28.8994 58.0679 28.1159 58.2238 28.0376 58.7172C27.4696 58.8017 27.3325 59.3664 26.9604 59.6717C26.9589 59.7663 26.9446 59.8601 26.9179 59.9509C26.2129 60.6231 25.2858 61.0449 24.7602 61.9216C24.0747 62.3727 23.9735 62.9181 24.4827 63.5674L24.7896 63.8726C25.7689 64.1096 26.1606 65.1712 27.042 65.5479L28.462 67.1028C28.5976 67.1558 28.7164 67.244 28.8059 67.358C28.8955 67.4723 28.9526 67.6083 28.9712 67.7521C28.191 68.6222 27.1105 69.1482 26.079 69.7422L25.7526 69.6545L25.1454 69.739C24.8222 69.9016 24.4657 69.9884 24.1035 69.9925C23.7412 69.9962 23.3829 69.9172 23.0562 69.7616C22.1651 69.9468 21.398 69.3525 20.5362 69.3623C20.1249 69.0052 19.8507 68.4824 19.2729 68.3236C18.2544 67.632 17.8105 66.5412 17.2882 65.5057C16.8312 64.048 16.4362 62.5579 16.8965 61.0027L16.9716 60.678L18.0259 58.7302C18.0107 58.661 17.9955 58.5907 17.9802 58.5193L18.9138 57.7725L19.8801 56.7144Z" fill="#5DDA1C"/>
<path d="M22.6333 60.9171L22.3176 59.7356C21.0708 59.212 20.7131 59.6493 20.7 61.7047C21.0229 62.1487 21.4404 62.4067 21.8784 62.4333L22.5886 61.6931L22.6333 60.9171Z" fill="#F0F0EB"/>
</g>
<defs>
<clipPath id="clip0_248_5">
<rect width="150" height="120" fill="white"/>
</clipPath>
</defs>
</svg>

<svg xmlns="http://www.w3.org/2000/svg" width="150" height="120" fill="none"><g clip-path="url(#a)"><path fill="#1C1E22" d="M0 0h150v120H0z"/><path fill="#1C1E22" d="M150 0H0v120h150V0Z"/><path fill="#FEFEFE" d="m123.76 60.8-.56-.06c-.76.24-1.52.51-2.27-.1.35-.52.4-1.18.94-1.57l.61-.71c0-.23 0-.46.28-.55a2.9 2.9 0 0 1 1.03-1.7c-1.21-.85-2.53-.19-3.73-.36l-3.77 6.54-3.67-6.49h-3.95v14.36h3.66v-8.47l3.95 6.46 3.89-6.2.32.1v8.12h3.6c0-2.37.02-4.64 0-6.91-.04-.82.27-1.7-.33-2.45ZM53.54 63.07c1.6-1.49 1.71-3.27.93-5.03-.77-1.7-2.53-2.23-4.32-2.31-2.37-.12-4.76-.03-7.22-.03v15.43c2.92-.13 5.66.18 8.4-.24 1.99-.3 3.38-1.08 3.93-2.98.58-1.96.15-3.59-1.72-4.84Zm-6.73-4.27c1.13-.18 2.3-.11 3.4.19.71.7.88 1.53.36 2.27-.94 1.32-2.41.6-3.75.85l-.01-3.31Zm3.31 9.08c-1.1.33-2.2.47-3.29-.03v-3.27h2.37c.47-.21.7.2 1.05.33 1.06-.22.94.61 1.01 1.1.13.86-.06 1.64-1.14 1.86ZM86.08 67.65c-1.65.4-3.3.4-3.99-1.14-1.05-2.34-1.2-5.18.15-7.3 1.44-2.26 3.93-1.07 6.09-.8l.93-2.51c-3-1.98-8.06-1.43-10.07 1.04-1.81 2.22-1.97 9.09-.27 11.68 1.8 2.72 6.34 3.33 10.41 1.36V63.2h-3.25v4.44ZM97.52 55.68c.53 1.6 1.28 3.02 1.55 4.58a14.05 14.05 0 0 1 1.47 3.74c-.76.24-1.47.13-2.22.09.12-1.11.77-2.04.72-3.12h-3.17l-3.64 9.19h3.83l1.2-2.96h4.33l1.27 2.97h3.87l-5.7-14.5h-3.51ZM62 66.67c-1.54-1.9-1.3-4.53-.45-6.67 1.35-3.43 4.27-1.55 6.58-1.72.3-.87.77-1.63.82-2.54-3.19-1.85-8.22-1.14-10.19 1.4-1.65 2.14-1.8 9.1-.23 11.27 2.1 2.9 6.66 3.6 10.5 1.55-.17-1-.5-1.97-.99-2.85-2.1.87-4.4 1.58-6.04-.44ZM131.02 64.32h6.64V61.5l-10.63-.03v8.7h11.6v-3.2h-7.61v-2.65ZM72.18 70.17h3.62v-2.9h-3.86c.12 1.03-.21 1.97.24 2.9ZM138.56 58.27l.07-2.3c-.55-.42-1.24-.27-1.87-.27-3.1-.03-6.2-.03-9.3-.03l-.43.34h.09c.02 0 .05-.02.06-.04v2.3l-.03.27 11.14.03c.09-.02.19-.03.28-.03v-.26l-.01-.01Z"/><path fill="#5DDA1C" d="m34.23 67.27-.03-9.21c-.4-.83-.12-1.9-.9-2.6-1.91-.7-3.35-2.22-5.26-2.87l-2.3-1.62c-1.6-.94-3.22-1.18-4.87-.14a.19.19 0 0 1-.2.13 1 1 0 0 0-.05.29l-1.09.6-.62.1-.96.58-.14-.33c.08-.97.24-1.98-.14-2.95l-.59-1.63a1.37 1.37 0 0 0-1.12-.85c-.53-.66-1.26-.42-1.93-.43-.68-.55-1.35-.36-2.03.03l.1 7.8v9.08l.04 4.43-.14.11.41.67.12.6c.38.75 1.3.85 1.81 1.46.47.06.69.65 1.22.56l1.68 1.01c.1.27.33.3.57.33l2.31 1.3a4.43 4.43 0 0 0 4.96.9l.33-.38.65-.22.63-.13c0-.09.02-.18.08-.26.25-.5.74-.63 1.23-.74l.4-.43c1.13-.48 2.04-1.4 3.24-1.74l2.23-1.7c.02-.3-.2-.6.03-.9.35-.2.33-.53.33-.85ZM19.88 56.71l.65-.17c1.79-1.34 3.74-1.26 5.75-.67l.04.02 2.33 1.53c.25.65-.53.8-.61 1.3-.57.08-.7.65-1.08.95 0 .1-.02.19-.04.28-.7.67-1.63 1.1-2.16 1.97-.69.45-.79 1-.28 1.65l.31.3c.98.24 1.37 1.3 2.25 1.68l1.42 1.55a.81.81 0 0 1 .51.65c-.78.87-1.86 1.4-2.9 2l-.32-.1-.6.09a2.38 2.38 0 0 1-2.1.02c-.88.19-1.65-.4-2.51-.4-.42-.35-.69-.88-1.27-1.04-1.02-.69-1.46-1.78-1.98-2.81-.46-1.46-.85-2.95-.4-4.5l.08-.33 1.06-1.95-.05-.21.93-.75.97-1.06Z"/><path fill="#F0F0EB" d="m22.63 60.92-.31-1.18c-1.25-.53-1.6-.1-1.62 1.96.32.45.74.7 1.18.73l.7-.74.05-.77Z"/></g><defs><clipPath id="a"><path fill="#fff" d="M0 0h150v120H0z"/></clipPath></defs></svg>
